X:1
T:Title
%%score { ( 1 3 ) | ( 2 4 ) }
L:1/8
Q:1/4=100
M:3/4
K:Eb
V:1 treble nm="Grand Piano"
V:3 treble 
V:2 bass 
V:4 bass 
V:1
 G2 G2 G2 | [DG]3 [DF] [DF]2 | [DF]2 [DG]2 [DA]2 | G6 | B2 B2 B2 | B3 A A2 | %6
w: S.~M.~Bixby * *||||||
 [B,EG]2 [=A,EF]2 [F,A,Ec]2 | [B,DB]6 | [B,EB]2 [Ec]2 [Ad]2 | [Ge]3 [Ae] [Ge]2 | F2 G2 A2 | %11
w: |||||
 c3 B B2 | [=EB]2 [CEA]2 [B,EG]2 | F2 z2 z2 | %14
w: |||
 [B,DB]2 [B,DG]2 [A,DF]2[Q:1/4=98][Q:1/4=97][Q:1/4=95][Q:1/4=94][Q:1/4=92][Q:1/4=91][Q:1/4=89][Q:1/4=88][Q:1/4=86][Q:1/4=84][Q:1/4=83][Q:1/4=81][Q:1/4=80][Q:1/4=78][Q:1/4=77] | %15
w: |
 [G,E]6 |] %16
w: |
V:2
 [E,B,E]2 [E,B,E]2 [E,B,E]2 | [B,,B,]3 [B,,B,] [B,,B,]2 | [B,,B,]2 [B,,B,]2 [B,,B,]2 | [E,B,E]6 | %4
 [E,G,E]2 [E,G,E]2 [E,G,_D]2 | [F,C]3 [F,C] [F,CE]2 | B,,2 C,2 F,,2 | B,,4 A,2 | %8
 G,2 [F,A,]2 [F,B,]2 | [E,B,]3 [E,C] [E,B,]2 | [A,CE]2 [G,CE]2 [F,CE]2 | %11
 [F,A,D]3 [F,A,D] [G,B,E]2 | [C,G,]2 C,2 C,2 | z2[K:treble] c4 | B,,2 B,,2 B,,2 | E,6 |] %16
V:3
 x6 | x6 | x6 | x6 | x6 | x6 | x6 | x6 | x6 | x6 | x6 | x6 | x6 | [=A,E]6 | x6 | x6 |] %16
V:4
 x6 | x6 | x6 | x6 | x6 | x6 | x6 | x6 | x6 | x6 | x6 | x6 | x6 | F,6[K:treble] | x6 | x6 |] %16

